X:1
T:Jesus, the Crucified
T:Jesus, the Crucified
T:Fred S. Shepard
T:H. D. Spear, 1909
T:Public Domain Courtesy of the Cyber Hymnal™
C:Fred S. Shepard
Z:Public Domain
Z:Courtesy of the Cyber Hymnal™
%%score ( 1 2 ) ( 3 4 )
L:1/8
Q:1/4=100
M:4/4
K:Ab
V:1 treble 
V:2 treble 
V:3 bass 
V:4 bass 
V:1
 [CA][DB] | [Ec]2 [Ec]2 [DB]2 [Ec][DB] | [CA]2 [EA]2 [DF]4 | [CE]2 [CA][Ec] [DB]2 [DB]2 | %4
w: 1.~On dark|Cal- va- ry stands a|cru- el tree,|Where Christ the Sav- ior|
w: 2.~All my|sins I bring to the|cross and cling|Where Christ the Sav- ior|
w: 3.~On this|sac- red hill pre- cious|mem- ories thrill,|Where Christ the Sav- ior|
w: 4.~Come un-|to the Lord, hear His|par- doning word,|Where Christ the Sav- ior|
 A6 [CA][DB] | [Ec]2 [Ec]2 [DB]2 [Ec][DB] | [CA]2 [EA]2 [DF]4 | [CE]2 [CA][Ec] [DB]2 [DB]2 | %8
w: died; And the|love thus shown doth for|sin a- tone—|Je- sus the Cru- ci-|
w: died; And He|speaks re- lease, gives my|soul sweet peace—|Je- sus, the Cru- ci-|
w: died; And I|count but loss all be-|side the cross—|Je- sus the Cru- ci-|
w: died; All your|bur- dens lay at His|feet to- day—|Je- sus, the Cru- ci-|
 [CA]6 z2 ||"^Refrain" [Ec]2 [Ec][Ec] [=Ec]3 [Ec] | [=Ec]2 [EB]2 [FA]4 | %11
w: fied.|||
w: fied.|O pre- cious cross of|Cal- va- ry,|
w: fied.|||
w: fied.|||
 [FA]2 [FA][FA] [EG]2 [DF]2 | [CE]6 [CA][DB] | [Ec]2 [Ee]2 [EB]2 [Ec][DB] | %14
w: |||
w: Where Christ the Sav- ior|died, Pour- ing|forth His blood, a re-|
w: |||
w: |||
 [CA]2 [Ec]2 !fermata![DF]4 | [DE]2 [DE][DF] [DG]2 [DB]2 | [CA]6 |] %17
w: |||
w: deem- ing flood—|Je- sus, the Cru- ci-|fied.|
w: |||
w: |||
V:2
 x2 | x8 | x8 | x8 | (C2 DD C2) x2 | x8 | x8 | x8 | x8 || x8 | x8 | x8 | x8 | x8 | x8 | x8 | x6 |] %17
V:3
 [A,,A,][A,,A,] | [A,,A,]2 [A,,A,]2 [E,G,]2 [E,G,][E,G,] | [F,A,]2 [C,A,]2 [D,A,]4 | %3
 [E,A,]2 [E,A,][E,A,] [E,G,]2 [E,G,]2 | (A,2 F,F, E,2) [A,,A,][A,,A,] | %5
 [A,,A,]2 [A,,A,]2 [E,G,]2 [E,G,][E,G,] | [F,A,]2 [C,A,]2 [D,A,]4 | %7
 [E,A,]2 [E,A,][E,A,] [E,G,]2 E,2 | [A,,E,]6 z2 || [A,,A,]2 [A,,A,][A,,A,] [C,G,]3 [C,G,] | %10
 [C,G,]2 [C,C]2 [F,C]4 | [D,D]2 [D,D][D,D] [D,A,]2 [D,A,]2 | [A,,A,]6 [A,,A,][A,,A,] | %13
 [A,,A,]2 [C,A,]2 [E,G,]2 [E,G,][E,G,] | [F,A,]2 [C,A,]2 A,4 | %15
 [E,G,]2 [E,G,][E,A,] [E,B,]2 [E,G,]2 | [A,,A,]6 |] %17
V:4
 x2 | x8 | x8 | x8 | A,,6 x2 | x8 | x8 | x6 E,2 | x8 || x8 | x8 | x8 | x8 | x8 | x4 (D,2 B,,2) | %15
 x8 | x6 |] %17

